X:58
T:Miss Longs for it. JJo8.058
B:J.Johnson Choice Collection Vol 8 1758
Z:vmp.Simon Wilson 2013 www.village-music-project.org.uk
M:C|
L:1/8
Q:1/2=100
K:Bb
|:((3fga)|bfdB fdBF|G2e2-e2dc|d2cBA2B2|c2F2-F2((3fga)|
bfdB fdBF|c=egba2{ga}b2|{b}a2gf{a}g2fe|=e2f4:|
|:((3fga)|bfdB fB_af|g2e2-e2c2|{B}A2BcF2E2|E2D4FE|
DFBF G{F}Eec|d{c}Bbgf2e2|{e}d2cB{d}c2BA|A2B4:|
